build/service/PauseOutline.svg

<svg xmlns="http://www.w3.org/2000/svg" fill="none" viewBox="0 0 24 24" focusable="false"><path d="M0 0H24V24H0z"/><path fill="#74767B" fill-rule="evenodd" d="M21 12C21 16.9706 16.9706 21 12 21C7.02944 21 3 16.9706 3 12C3 7.02944 7.02944 3 12 3C16.9706 3 21 7.02944 21 12ZM19.7 12C19.7 16.2526 16.2526 19.7 12 19.7C7.74741 19.7 4.3 16.2526 4.3 12C4.3 7.74741 7.74741 4.3 12 4.3C16.2526 4.3 19.7 7.74741 19.7 12ZM10.8633 9.08136C10.8633 8.72238 10.5723 8.43136 10.2133 8.43136C9.85431 8.43136 9.5633 8.72238 9.5633 9.08136L9.5633 14.9442C9.5633 15.3032 9.85431 15.5942 10.2133 15.5942C10.5723 15.5942 10.8633 15.3032 10.8633 14.9442L10.8633 9.08136ZM13.7867 8.43136C14.1457 8.43136 14.4367 8.72238 14.4367 9.08136L14.4367 14.9442C14.4367 15.3032 14.1457 15.5942 13.7867 15.5942C13.4277 15.5942 13.1367 15.3032 13.1367 14.9442L13.1367 9.08136C13.1367 8.72238 13.4277 8.43136 13.7867 8.43136Z"/></svg>

<svg xmlns="http://www.w3.org/2000/svg" fill="none" viewBox="0 0 24 24" focusable="false"><path fill="#74767B" fill-rule="evenodd" d="M21 12a9 9 0 0 1-9 9c-4.98 0-9-4.03-9-9 0-4.98 4.02-9 9-9 4.97 0 9 4.02 9 9m-1.3 0c0 4.25-3.45 7.7-7.7 7.7a7.7 7.7 0 1 1 0-15.4c4.25 0 7.7 3.44 7.7 7.7m-9.49-3.57c.36 0 .65.29.65.65v5.86c0 .36-.29.65-.65.65s-.65-.29-.65-.65V9.08c0-.36.29-.65.65-.65m3.57 0c.36 0 .65.29.65.65v5.86c0 .36-.29.65-.65.65s-.65-.29-.65-.65V9.08c0-.36.29-.65.65-.65"/></svg>
